website/static/img/navbar-logo-mobile-light.svg

<svg width="42" height="34" viewBox="0 0 42 34" fill="none" xmlns="http://www.w3.org/2000/svg">
<path fill-rule="evenodd" clip-rule="evenodd" d="M31.5412 10.9073C33.4058 10.861 35.3708 10.2105 37.6304 8.90843C38.2243 7.94155 38.6956 7.02312 39.0638 6.18082L40.8934 5.64941C40.4362 6.89724 39.7584 8.33661 38.7964 9.87433C39.1147 14.6812 37.1717 19.6613 33.8614 23.4645C30.4563 27.3764 25.5465 30.1091 20.0249 30.1091C18.4971 30.1091 16.9728 29.9888 15.4549 29.8235C16.3682 28.7607 17.2845 27.6938 17.7106 26.3342C15.5641 27.2315 13.2984 27.9538 11.0001 28.3436C6.40738 25.9563 1.47243 21.9669 0.782227 16.4809C4.59692 9.76201 12.464 6.19081 20.0442 7.19905C20.9858 9.49385 22.6195 11.1268 24.8022 12.2802C24.6517 11.0138 24.6981 9.72859 24.6981 8.45548C26.8116 9.76131 28.9685 10.9712 31.5412 10.9073ZM35.8381 11.4621C33.7685 14.0712 30.8047 16.8403 26.6297 19.3186C26.2081 18.5336 25.3793 17.9998 24.4259 17.9998C23.7684 17.9998 23.1703 18.2536 22.724 18.6685L17.7542 15.3824C18.0692 13.8661 16.872 12.3714 15.3065 12.3714C13.78 12.3714 12.5913 13.7941 12.8408 15.2867L4.92001 21.7452C3.04759 19.4381 2.49292 17.4541 2.34677 16.7805C5.88373 11.1946 12.3872 7.84514 18.9999 8.57798C20.5942 11.9965 23.8597 13.472 27.017 15.0697C26.6424 13.7503 26.2695 12.4767 26.2155 11.0949C28.0025 12.0082 29.7591 12.452 31.5785 12.4069C32.9783 12.3721 34.384 12.0485 35.8381 11.4621ZM26.8938 20.9016C31.6802 18.148 35.0125 15.0029 37.2856 12.0456C36.9981 15.7484 35.3368 19.4848 32.7299 22.4796C29.0263 26.7347 23.895 28.8259 18.3182 28.5843C19.2155 27.0856 19.4176 25.6009 19.4176 23.9051C16.8051 25.1381 14.0833 26.2131 11.2408 26.7767C8.91686 25.5402 7.19418 24.1792 5.91812 22.8667L13.5464 16.6468C13.9982 17.0948 14.62 17.3714 15.3065 17.3714C15.9686 17.3714 16.5706 17.114 17.0179 16.6938L21.981 19.9755C21.6567 21.495 22.8548 22.9998 24.4259 22.9998C25.6698 22.9998 26.7016 22.0913 26.8938 20.9016Z" fill="black"/>
</svg>

<svg xmlns="http://www.w3.org/2000/svg" width="42" height="34" viewBox="0 0 42 34"><path fill-rule="evenodd" d="M31.54 10.9c1.87-.04 3.83-.69 6.09-2 .6-.96 1.07-1.88 1.43-2.72l1.83-.53a22.86 22.86 0 0 1-2.1 4.22c.32 4.81-1.62 9.8-4.93 13.6-3.4 3.9-8.31 6.64-13.84 6.64-1.52 0-3.05-.12-4.57-.29.92-1.06 1.83-2.13 2.26-3.49-2.15.9-4.41 1.62-6.71 2.01C6.4 25.96 1.47 21.97.78 16.48 4.6 9.76 12.46 6.2 20.04 7.2a9.9 9.9 0 0 0 4.76 5.08c-.15-1.27-.1-2.55-.1-3.82 2.11 1.3 4.27 2.51 6.84 2.45Zm4.3.56a33.3 33.3 0 0 1-9.21 7.86 2.5 2.5 0 0 0-3.9-.65l-4.98-3.29a2.53 2.53 0 0 0-2.44-3 2.53 2.53 0 0 0-2.47 2.9l-7.92 6.47a12.31 12.31 0 0 1-2.57-4.97C5.88 11.2 12.39 7.85 19 8.58c1.6 3.42 4.86 4.9 8.02 6.49-.38-1.32-.75-2.6-.8-3.98a11 11 0 0 0 5.36 1.32c1.4-.04 2.8-.36 4.26-.95Zm-8.95 9.44a34.82 34.82 0 0 0 10.4-8.85 18.38 18.38 0 0 1-4.56 10.43 17.68 17.68 0 0 1-14.41 6.1c.9-1.5 1.1-2.98 1.1-4.67a35.5 35.5 0 0 1-8.18 2.87 21.29 21.29 0 0 1-5.32-3.91l7.63-6.22a2.5 2.5 0 0 0 3.47.04l4.96 3.29A2.53 2.53 0 0 0 24.43 23a2.5 2.5 0 0 0 2.46-2.1Z"/></svg>
